components/2.0/icon/icons/icon-wand-22px.svg

<?xml version="1.0" encoding="UTF-8" standalone="no"?>
<svg width="22px" height="22px" viewBox="0 0 22 22" version="1.1" xmlns="http://www.w3.org/2000/svg" xmlns:xlink="http://www.w3.org/1999/xlink" xmlns:sketch="http://www.bohemiancoding.com/sketch/ns">
    <!-- Generator: Sketch 3.4.4 (17249) - http://www.bohemiancoding.com/sketch -->
    <title>icon-wand-22px</title>
    <desc>Created with Sketch.</desc>
    <defs></defs>
    <g id="22px" stroke="none" stroke-width="1" fill="none" fill-rule="evenodd" sketch:type="MSPage">
        <g id="icon-wand-22px" sketch:type="MSArtboardGroup" fill="#3D4752">
            <path d="M7.99980004,10 L7.2069,9.2071 C6.8169,8.8161 6.8169,8.1831 7.2069,7.7931 L7.7929,7.2071 C8.1839,6.8161 8.8169,6.8161 9.2069,7.2071 L19.7929,17.7931 C20.1839,18.1831 20.1839,18.8161 19.7929,19.2071 L19.2069,19.7931 C18.8169,20.1831 18.1839,20.1831 17.7929,19.7931 L8.5,10.5002 L8.5,13.5 C8.5,13.776 8.276,14 8,14 C7.724,14 7.5,13.776 7.5,13.5 L7.5,10.5 C7.5,10.2240667 7.72389182,10.0001082 7.99980004,10 L7.99980004,10 Z M5.5,6 C5.372,6 5.244,5.951 5.146,5.854 L3.146,3.854 C2.951,3.658 2.951,3.342 3.146,3.146 C3.342,2.951 3.658,2.951 3.854,3.146 L5.854,5.146 C6.049,5.342 6.049,5.658 5.854,5.854 C5.756,5.951 5.628,6 5.5,6 L5.5,6 Z M8,6 C7.724,6 7.5,5.776 7.5,5.5 L7.5,2.5 C7.5,2.224 7.724,2 8,2 C8.276,2 8.5,2.224 8.5,2.5 L8.5,5.5 C8.5,5.776 8.276,6 8,6 L8,6 Z M5.5,8.5 L2.5,8.5 C2.224,8.5 2,8.276 2,8 C2,7.724 2.224,7.5 2.5,7.5 L5.5,7.5 C5.776,7.5 6,7.724 6,8 C6,8.276 5.776,8.5 5.5,8.5 L5.5,8.5 Z M10.5,6 C10.372,6 10.244,5.951 10.146,5.854 C9.951,5.658 9.951,5.342 10.146,5.146 L12.146,3.146 C12.342,2.951 12.658,2.951 12.854,3.146 C13.049,3.342 13.049,3.658 12.854,3.854 L10.854,5.854 C10.756,5.951 10.628,6 10.5,6 L10.5,6 Z M3.5,13 C3.372,13 3.244,12.951 3.146,12.854 C2.951,12.658 2.951,12.342 3.146,12.146 L5.146,10.146 C5.342,9.951 5.658,9.951 5.854,10.146 C6.049,10.342 6.049,10.658 5.854,10.854 L3.854,12.854 C3.756,12.951 3.628,13 3.5,13 L3.5,13 Z M14.5,8.5 L11.5,8.5 C11.224,8.5 11,8.276 11,8 C11,7.724 11.224,7.5 11.5,7.5 L14.5,7.5 C14.776,7.5 15,7.724 15,8 C15,8.276 14.776,8.5 14.5,8.5 L14.5,8.5 Z" id="Fill-1" sketch:type="MSShapeGroup"></path>
        </g>
    </g>
</svg>

<svg width="22" height="22" xmlns="http://www.w3.org/2000/svg"><path d="M8 10l-.8-.8c-.4-.4-.4-1 0-1.4l.6-.6c.4-.4 1-.4 1.4 0l10.6 10.6c.4.4.4 1 0 1.4l-.6.6c-.4.4-1 .4-1.4 0l-9.3-9.3v3c0 .3-.2.5-.5.5s-.5-.2-.5-.5v-3c0-.3.2-.5.5-.5zM5.5 6H5L3 4V3h1l2 2v1h-.5zM8 6c-.3 0-.5-.2-.5-.5v-3c0-.3.2-.5.5-.5s.5.2.5.5v3c0 .3-.2.5-.5.5zM5.5 8.5h-3c-.3 0-.5-.2-.5-.5s.2-.5.5-.5h3c.3 0 .5.2.5.5s-.2.5-.5.5zm5-2.5H10V5l2-2h1v1l-2 2h-.5zm-7 7H3v-1l2-2h1v1l-2 2h-.5zm11-4.5h-3c-.3 0-.5-.2-.5-.5s.2-.5.5-.5h3c.3 0 .5.2.5.5s-.2.5-.5.5z" fill="#3D4752" fill-rule="evenodd"/></svg>
